!!! OTL: Pao\, Yang/,Yu\ (Cutting Potato) 
!!! YEC: Copyright 2001, Chia-wei Lee
!! For Voice Only
!! Moderato
**kern	**silbe
*clefG2	*LXinhua
*C:	*ping-ying
*M2/4	*
=8	=8
8r	.
8a	Tu
8ee	Liou-
16dd	Liou-
16cc	De
=9	=9
8dd	Zha\
4.a	Meng^
=10	=10
8cc	Man^
16b	Ia
16a	Mo
8g	Man^
(16e	Di\
16g)	|
=11	=11
[2a	Pau^
=12	=12
8a]	|
8a	Ju^
8ee	Qi^
16dd	Wo^
16cc	Na\
=13	=13
8dd	Chu/
4.e	Tou/
=14	=14
16g	Ai\
16g	Ia\
16g	Lai/
16a	Ba^
(16e	Yang/
16d)	|
8c	Yu\
=15	=15
2d	Pao.
*-	*-
